X:259
T:Unknown Andro
M:2/4
L:1/8
R:polka
D:The Tannahill Weavers: Alchemy
N:Learned from The Tannahill Weavers: Alchemy
Z:Michael Abraham Shulman
K:Cdor
|:G>A G>F|GE C2|FG/F/ DB,|E/D/E/F/ G2|
G>A G>F|GE C2|FG/F/ DB,|1 E/D/E/D/ C2:|2 E/D/E/D/ C>F:|
|:GB C>F|GB D2|FG/F/ DB,|E/D/E/F/ G>F|
GB C>F|GB D2|FG/F/ DB,|1 E/D/E/D/ C>F:|2 E/D/E/D/ C2:|
